img/whatapp.svg

<svg width="48" height="48" viewBox="0 0 48 48" fill="none" xmlns="http://www.w3.org/2000/svg">
<rect width="48" height="48" rx="24" fill="url(#paint0_linear_478_970)"/>
<path d="M9.44141 37.9627L11.4993 30.49C10.227 28.2966 9.55959 25.8126 9.56655 23.2732C9.56655 15.3161 16.0739 8.84668 24.062 8.84668C27.9414 8.84668 31.5843 10.3481 34.3166 13.0743C37.0558 15.8005 38.5644 19.4262 38.5574 23.2802C38.5574 31.2373 32.0501 37.7067 24.055 37.7067H24.0481C21.6218 37.7067 19.2371 37.0978 17.1167 35.9493L9.44141 37.9627ZM17.4852 33.3407L17.9232 33.6036C19.7725 34.6969 21.8929 35.2712 24.055 35.2781H24.062C30.7014 35.2781 36.1103 29.9019 36.1103 23.2871C36.1103 20.0835 34.8588 17.0736 32.5855 14.8041C30.3121 12.5346 27.2809 11.2892 24.062 11.2892C17.4226 11.2822 12.0137 16.6585 12.0137 23.2732C12.0137 25.5358 12.6464 27.7431 13.8561 29.6528L14.1411 30.1094L12.9245 34.5308L17.4852 33.3407Z" fill="white"/>
<path d="M9.94922 37.4574L11.9376 30.2407C10.707 28.1303 10.0605 25.7294 10.0605 23.28C10.0674 15.5996 16.3453 9.35156 24.0623 9.35156C27.8096 9.35156 31.3204 10.8046 33.9623 13.4339C36.6042 16.0632 38.0572 19.5643 38.0572 23.2869C38.0572 30.9672 31.7723 37.2153 24.0623 37.2153H24.0553C21.7124 37.2153 19.4112 36.6271 17.3673 35.52L9.94922 37.4574Z" fill="url(#paint1_linear_478_970)"/>
<path d="M9.44141 37.9627L11.4993 30.49C10.227 28.2966 9.55959 25.8126 9.56655 23.2732C9.56655 15.3161 16.0739 8.84668 24.062 8.84668C27.9414 8.84668 31.5843 10.3481 34.3166 13.0743C37.0558 15.8005 38.5644 19.4262 38.5574 23.2802C38.5574 31.2373 32.0501 37.7067 24.055 37.7067H24.0481C21.6218 37.7067 19.2371 37.0978 17.1167 35.9493L9.44141 37.9627ZM17.4852 33.3407L17.9232 33.6036C19.7725 34.6969 21.8929 35.2712 24.055 35.2781H24.062C30.7014 35.2781 36.1103 29.9019 36.1103 23.2871C36.1103 20.0835 34.8588 17.0736 32.5855 14.8041C30.3121 12.5346 27.2809 11.2892 24.062 11.2892C17.4226 11.2822 12.0137 16.6585 12.0137 23.2732C12.0137 25.5358 12.6464 27.7431 13.8561 29.6528L14.1411 30.1094L12.9245 34.5308L17.4852 33.3407Z" fill="url(#paint2_linear_478_970)"/>
<path fill-rule="evenodd" clip-rule="evenodd" d="M20.4395 17.24C20.1684 16.638 19.8834 16.6242 19.6261 16.6173C19.4175 16.6104 19.1742 16.6104 18.9309 16.6104C18.6876 16.6104 18.2982 16.7003 17.9645 17.0601C17.6308 17.4199 16.6992 18.2917 16.6992 20.07C16.6992 21.8413 17.9993 23.5572 18.18 23.7994C18.3608 24.0416 20.6898 27.7987 24.3676 29.2448C27.4265 30.4488 28.0522 30.2066 28.7127 30.1443C29.3732 30.0821 30.854 29.2725 31.1599 28.4284C31.4589 27.5842 31.4589 26.8646 31.3685 26.7124C31.2781 26.5602 31.0348 26.4702 30.6732 26.2903C30.3117 26.1104 28.532 25.2386 28.1982 25.1141C27.8645 24.9964 27.6212 24.9342 27.3848 25.294C27.1415 25.6538 26.4463 26.4633 26.2377 26.7055C26.0291 26.9477 25.8136 26.9753 25.4521 26.7954C25.0906 26.6155 23.9226 26.235 22.5391 25.0034C21.4615 24.0485 20.7315 22.8653 20.523 22.5055C20.3144 22.1457 20.5021 21.952 20.6829 21.7721C20.8428 21.6129 21.0444 21.35 21.2251 21.1424C21.4059 20.9349 21.4685 20.7826 21.5867 20.5405C21.7048 20.2983 21.6492 20.0907 21.5588 19.9108C21.4685 19.7378 20.7593 17.9527 20.4395 17.24Z" fill="white"/>
<defs>
<linearGradient id="paint0_linear_478_970" x1="23.9988" y1="47.9976" x2="23.9988" y2="-0.0016794" gradientUnits="userSpaceOnUse">
<stop stop-color="#20B038"/>
<stop offset="1" stop-color="#60D66A"/>
</linearGradient>
<linearGradient id="paint1_linear_478_970" x1="24.0025" y1="37.456" x2="24.0025" y2="9.35058" gradientUnits="userSpaceOnUse">
<stop stop-color="#20B038"/>
<stop offset="1" stop-color="#60D66A"/>
</linearGradient>
<linearGradient id="paint2_linear_478_970" x1="24.0023" y1="37.96" x2="24.0023" y2="8.84668" gradientUnits="userSpaceOnUse">
<stop stop-color="#F9F9F9"/>
<stop offset="1" stop-color="white"/>
</linearGradient>
</defs>
</svg>

<svg width="48" height="48" fill="none" xmlns="http://www.w3.org/2000/svg"><rect width="48" height="48" rx="24" fill="url(#a)"/><path d="M9.441 37.963 11.5 30.49a14.288 14.288 0 0 1-1.932-7.217c0-7.957 6.507-14.426 14.495-14.426 3.88 0 7.522 1.501 10.255 4.227a14.271 14.271 0 0 1 4.24 10.206c0 7.957-6.507 14.427-14.502 14.427h-.007c-2.426 0-4.81-.61-6.931-1.758L9.44 37.963Zm8.044-4.622.438.263a12.126 12.126 0 0 0 6.132 1.674h.007c6.64 0 12.048-5.376 12.048-11.99 0-3.204-1.251-6.214-3.524-8.484a11.986 11.986 0 0 0-8.524-3.515c-6.64-.007-12.048 5.37-12.048 11.984a11.9 11.9 0 0 0 1.842 6.38l.285.456-1.216 4.422 4.56-1.19Z" fill="#fff"/><path d="m9.95 37.457 1.988-7.216a13.812 13.812 0 0 1-1.878-6.961c.007-7.68 6.285-13.928 14.002-13.928 3.748 0 7.258 1.453 9.9 4.082a13.81 13.81 0 0 1 4.095 9.853c0 7.68-6.285 13.928-13.995 13.928h-.007c-2.343 0-4.644-.588-6.688-1.695L9.95 37.457Z" fill="url(#b)"/><path d="M9.441 37.963 11.5 30.49a14.288 14.288 0 0 1-1.932-7.217c0-7.957 6.507-14.426 14.495-14.426 3.88 0 7.522 1.501 10.255 4.227a14.271 14.271 0 0 1 4.24 10.206c0 7.957-6.507 14.427-14.502 14.427h-.007c-2.426 0-4.81-.61-6.931-1.758L9.44 37.963Zm8.044-4.622.438.263a12.126 12.126 0 0 0 6.132 1.674h.007c6.64 0 12.048-5.376 12.048-11.99 0-3.204-1.251-6.214-3.524-8.484a11.986 11.986 0 0 0-8.524-3.515c-6.64-.007-12.048 5.37-12.048 11.984a11.9 11.9 0 0 0 1.842 6.38l.285.456-1.216 4.422 4.56-1.19Z" fill="url(#c)"/><path fill-rule="evenodd" clip-rule="evenodd" d="M20.44 17.24c-.272-.602-.557-.616-.814-.623-.209-.007-.452-.007-.695-.007-.243 0-.633.09-.966.45-.334.36-1.266 1.232-1.266 3.01 0 1.771 1.3 3.487 1.481 3.73.18.242 2.51 3.999 6.188 5.445 3.059 1.204 3.684.962 4.345.9.66-.063 2.141-.872 2.447-1.717.299-.844.299-1.563.209-1.716-.09-.152-.334-.242-.696-.422-.361-.18-2.141-1.051-2.475-1.176-.334-.118-.577-.18-.813.18-.244.36-.939 1.17-1.147 1.412-.209.242-.424.27-.786.09-.361-.18-1.53-.561-2.913-1.793-1.078-.954-1.808-2.138-2.016-2.497-.209-.36-.02-.554.16-.734.16-.16.361-.422.542-.63.18-.207.243-.36.362-.601.118-.243.062-.45-.028-.63-.09-.173-.8-1.958-1.12-2.671Z" fill="#fff"/><defs><linearGradient id="a" x1="23.999" y1="47.998" x2="23.999" y2="-.002" gradientUnits="userSpaceOnUse"><stop stop-color="#20B038"/><stop offset="1" stop-color="#60D66A"/></linearGradient><linearGradient id="b" x1="24.003" y1="37.456" x2="24.003" y2="9.351" gradientUnits="userSpaceOnUse"><stop stop-color="#20B038"/><stop offset="1" stop-color="#60D66A"/></linearGradient><linearGradient id="c" x1="24.002" y1="37.96" x2="24.002" y2="8.847" gradientUnits="userSpaceOnUse"><stop stop-color="#F9F9F9"/><stop offset="1" stop-color="#fff"/></linearGradient></defs></svg>
